X:38
T:British Reel,A. JGi.038
M:C|
L:1/8
Q:1/4=130
S:Joshua Gibbons MS,1823,Tealby,Lincs.
R:Reel
O:Tealby,Lincolnshire
Z:VMP/R.Greig, 2009
K:D
dAFA Bdce|dfge cAA2|dAFA Bdce|dfea fd d2:|
|:efgf agfd|Bdge cA A2|FAdA GBed|ceag fd d2:|

